dist/img/icons/mail-black.svg

<svg width="27" height="27" viewBox="0 0 27 27" fill="none" xmlns="http://www.w3.org/2000/svg">
<path d="M5.52582 6.00941C5.55386 6.00928 5.58189 6.00916 5.61077 6.00902C5.7048 6.00868 5.79881 6.00886 5.89284 6.00904C5.9609 6.0089 6.02895 6.00873 6.09701 6.00854C6.28411 6.00809 6.47121 6.0081 6.65831 6.00818C6.86007 6.0082 7.06183 6.0078 7.26358 6.00745C7.6589 6.00684 8.05422 6.00664 8.44954 6.0066C8.77086 6.00656 9.09217 6.00641 9.41348 6.00618C10.3243 6.00553 11.2351 6.00519 12.1459 6.00525C12.1827 6.00525 12.1827 6.00525 12.2203 6.00525C12.27 6.00526 12.3196 6.00526 12.3692 6.00526C13.1415 6.00531 13.9137 6.00476 14.6859 6.00375C15.5536 6.00263 16.4213 6.002 17.289 6.00207C17.7484 6.00209 18.2078 6.00189 18.6672 6.0011C19.0583 6.00043 19.4495 6.00027 19.8406 6.00077C20.0402 6.00101 20.2397 6.00101 20.4393 6.00038C20.622 5.9998 20.8048 5.99991 20.9875 6.00055C21.0536 6.00066 21.1196 6.00052 21.1857 6.00012C21.7203 5.99703 22.1448 6.08474 22.5435 6.4626C22.8009 6.7362 22.9895 7.05346 22.9901 7.43665C22.9903 7.47746 22.9905 7.51828 22.9908 7.56034C22.9907 7.6048 22.9906 7.64927 22.9904 7.69509C22.9906 7.74262 22.9908 7.79015 22.9909 7.83912C22.9914 7.97083 22.9914 8.10253 22.9913 8.23424C22.9913 8.37638 22.9917 8.51851 22.992 8.66065C22.9927 8.93905 22.9929 9.21745 22.9929 9.49585C22.9929 9.72219 22.9931 9.94854 22.9933 10.1749C22.994 10.8168 22.9943 11.4587 22.9943 12.1006C22.9943 12.1525 22.9943 12.1525 22.9943 12.2055C22.9943 12.2401 22.9943 12.2748 22.9942 12.3105C22.9942 12.8718 22.9949 13.4331 22.996 13.9944C22.997 14.5709 22.9975 15.1475 22.9975 15.724C22.9975 16.0476 22.9977 16.3712 22.9985 16.6948C22.9991 16.9704 22.9993 17.2459 22.9988 17.5215C22.9986 17.662 22.9985 17.8025 22.9992 17.943C22.9999 18.0955 22.9994 18.248 22.9988 18.4006C22.9992 18.4447 22.9996 18.4889 23 18.5343C22.9964 18.9752 22.8416 19.3429 22.5322 19.6629C22.2262 19.945 21.898 20.1073 21.4742 20.1049C21.4461 20.105 21.4181 20.1051 21.3892 20.1053C21.2952 20.1056 21.2012 20.1054 21.1072 20.1052C21.0391 20.1054 20.971 20.1056 20.903 20.1057C20.7159 20.1062 20.5288 20.1062 20.3417 20.1061C20.1399 20.1061 19.9382 20.1065 19.7364 20.1068C19.3411 20.1074 18.9458 20.1076 18.5505 20.1077C18.2291 20.1077 17.9078 20.1079 17.5865 20.1081C16.6757 20.1088 15.7649 20.1091 14.8541 20.109C14.8173 20.109 14.8173 20.109 14.7797 20.109C14.73 20.109 14.6804 20.109 14.6308 20.109C13.8585 20.109 13.0863 20.1095 12.3141 20.1105C11.4464 20.1117 10.5787 20.1123 9.71096 20.1122C9.25156 20.1122 8.79218 20.1124 8.33279 20.1132C7.94165 20.1139 7.55052 20.114 7.15938 20.1135C6.95983 20.1133 6.76028 20.1133 6.56072 20.1139C6.37797 20.1145 6.19523 20.1144 6.01247 20.1137C5.94643 20.1136 5.88039 20.1138 5.81435 20.1142C5.27972 20.1173 4.85522 20.0295 4.45649 19.6517C4.19912 19.3781 4.01051 19.0608 4.00994 18.6776C4.0097 18.6368 4.00946 18.596 4.00922 18.5539C4.00933 18.5095 4.00944 18.465 4.00956 18.4192C4.0094 18.3717 4.00923 18.3241 4.00905 18.2752C4.0086 18.1435 4.00861 18.0118 4.0087 17.88C4.00871 17.7379 4.0083 17.5958 4.00795 17.4536C4.00734 17.1752 4.00713 16.8968 4.00709 16.6184C4.00706 16.3921 4.00691 16.1657 4.00667 15.9394C4.00602 15.2975 4.00568 14.6556 4.00573 14.0136C4.00574 13.9617 4.00574 13.9617 4.00574 13.9088C4.00574 13.8742 4.00575 13.8395 4.00575 13.8038C4.00578 13.2425 4.00507 12.6812 4.00403 12.1199C4.00296 11.5434 4.00245 10.9668 4.00252 10.3903C4.00254 10.0667 4.00234 9.74305 4.00154 9.41945C4.00087 9.1439 4.00071 8.86836 4.00121 8.59281C4.00145 8.45229 4.00145 8.31178 4.00081 8.17127C4.00012 8.01874 4.00058 7.86624 4.00115 7.71371C4.00077 7.66957 4.00039 7.62543 4 7.57995C4.00364 7.13905 4.15835 6.77136 4.46777 6.45143C4.77383 6.16933 5.10202 6.00694 5.52582 6.00941ZM5.5008 6.82532C5.67095 7.02526 5.67095 7.02526 5.8532 7.20764C5.87564 7.22828 5.89808 7.24891 5.9212 7.27017C5.956 7.30174 5.956 7.30174 5.99149 7.33394C6.01598 7.35636 6.04046 7.37878 6.06568 7.40187C6.22767 7.54987 6.39102 7.69631 6.55538 7.84171C6.66768 7.94185 6.77865 8.04335 6.88955 8.145C7.03064 8.27429 7.17224 8.40289 7.31543 8.5299C7.4986 8.69243 7.67921 8.8576 7.85979 9.02292C8.10824 9.25035 8.35735 9.47703 8.60929 9.70066C8.77425 9.84718 8.93709 9.99588 9.09974 10.1449C9.25028 10.2827 9.40226 10.4188 9.55494 10.5542C9.66078 10.6487 9.76582 10.7439 9.87073 10.8393C10.0059 10.9623 10.1415 11.0846 10.2781 11.2059C10.5087 11.4108 10.7366 11.6185 10.9647 11.826C11.1846 12.026 11.4053 12.2251 11.6275 12.4225C11.7337 12.5174 11.8392 12.6131 11.9446 12.7089C12.1102 12.8594 12.2766 13.0089 12.4441 13.1574C12.5108 13.2169 12.577 13.2769 12.6429 13.3372C12.6959 13.3857 12.6959 13.3857 12.7501 13.4352C12.782 13.4645 12.8139 13.4939 12.8467 13.5241C13.0404 13.6883 13.2356 13.827 13.5004 13.827C13.756 13.8038 13.9385 13.6976 14.1249 13.5245C14.1571 13.4951 14.1892 13.4657 14.2223 13.4353C14.2528 13.4073 14.2833 13.3793 14.3147 13.3504C14.3616 13.3097 14.4087 13.2692 14.4559 13.229C14.6103 13.0959 14.7601 12.9582 14.9102 12.8205C15.0619 12.6815 15.2152 12.5441 15.3692 12.4075C15.475 12.3131 15.5801 12.2178 15.685 12.1224C15.8193 12.0002 15.9542 11.8786 16.09 11.7581C16.2339 11.6303 16.3763 11.5009 16.5182 11.3709C16.6894 11.214 16.8619 11.0586 17.0357 10.9045C17.1415 10.8101 17.2466 10.7148 17.3515 10.6194C17.4866 10.4965 17.6222 10.3742 17.7588 10.2528C17.9702 10.065 18.1793 9.87483 18.3884 9.68462C18.806 9.30478 18.806 9.30478 19.0157 9.11872C19.1995 8.95535 19.3809 8.78946 19.5623 8.62341C19.8108 8.39599 20.0599 8.16931 20.3118 7.94567C20.4747 7.80097 20.6357 7.65445 20.7963 7.50723C20.8996 7.41251 21.0032 7.31819 21.1076 7.22469C21.1279 7.20646 21.1482 7.18824 21.1691 7.16947C21.2252 7.11915 21.2814 7.06896 21.3376 7.01877C21.4299 6.93669 21.4299 6.93669 21.4992 6.82532C16.2197 6.82532 10.9403 6.82532 5.5008 6.82532ZM4.8342 7.4485C4.8342 11.1502 4.8342 14.8519 4.8342 18.6658C4.9536 18.6067 5.01643 18.5688 5.1092 18.4821C5.14432 18.4494 5.14432 18.4494 5.18016 18.4161C5.20424 18.3934 5.22833 18.3707 5.25314 18.3473C5.27679 18.3253 5.30045 18.3033 5.32482 18.2807C5.44385 18.1695 5.56097 18.0569 5.67627 17.9419C5.76153 17.8571 5.84792 17.776 5.94057 17.6989C6.05203 17.6039 6.15669 17.5047 6.25998 17.4011C6.38446 17.2762 6.51318 17.1601 6.64768 17.046C6.76141 16.9455 6.86688 16.8373 6.97389 16.7299C7.07201 16.6342 7.17514 16.5458 7.2797 16.457C7.37964 16.3691 7.47257 16.2751 7.56541 16.1799C7.63779 16.1103 7.71171 16.0447 7.7879 15.9792C7.94115 15.8474 8.0892 15.7109 8.23664 15.5728C8.42767 15.3947 8.61991 15.2184 8.81572 15.0454C8.92763 14.9457 9.03813 14.8446 9.14858 14.7434C9.42214 14.4928 9.69847 14.2457 9.97952 14.0034C10.0674 13.927 10.1542 13.8495 10.2411 13.772C10.3755 13.6519 10.5109 13.5331 10.6474 13.4154C10.7843 13.2969 10.92 13.1769 11.0558 13.0571C10.9973 12.9105 10.9003 12.8287 10.7827 12.7249C10.7424 12.6891 10.702 12.6532 10.6617 12.6174C10.6411 12.5992 10.6204 12.5809 10.5992 12.5621C10.5021 12.476 10.4064 12.3885 10.3105 12.3011C10.1777 12.1804 10.0443 12.0605 9.91008 11.9414C9.74508 11.7948 9.58221 11.6461 9.41954 11.497C9.29917 11.3869 9.1781 11.2776 9.056 11.1693C8.89171 11.0235 8.72964 10.8756 8.56777 10.7272C8.4474 10.617 8.32633 10.5078 8.20423 10.3995C8.03995 10.2537 7.87788 10.1057 7.716 9.95741C7.59563 9.84723 7.47456 9.73794 7.35247 9.62964C7.18818 9.48391 7.02611 9.33593 6.86423 9.1876C6.74387 9.07742 6.6228 8.96813 6.5007 8.85982C6.33641 8.7141 6.17434 8.56612 6.01247 8.41778C5.86316 8.28112 5.71247 8.14609 5.56069 8.01211C5.48591 7.94494 5.41227 7.87704 5.33907 7.8082C5.31754 7.7881 5.29601 7.76799 5.27383 7.74727C5.23157 7.70773 5.18951 7.66798 5.14768 7.62799C5.03919 7.52684 4.98249 7.48519 4.8342 7.4485ZM21.9814 7.51165C21.9544 7.53995 21.9274 7.56826 21.8996 7.59742C21.7984 7.70099 21.6979 7.80171 21.5872 7.89527C21.4365 8.02315 21.2921 8.1572 21.1474 8.29163C20.9858 8.44163 20.8235 8.58972 20.6555 8.73267C20.5334 8.83995 20.4147 8.95087 20.2956 9.06144C20.134 9.21144 19.9718 9.35953 19.8038 9.50248C19.6816 9.60977 19.563 9.72068 19.4439 9.83126C19.2823 9.98125 19.12 10.1293 18.952 10.2723C18.8299 10.3796 18.7112 10.4905 18.5921 10.6011C18.4305 10.7511 18.2682 10.8992 18.1002 11.0421C17.9781 11.1494 17.8594 11.2603 17.7403 11.3709C17.5787 11.5209 17.4165 11.669 17.2485 11.8119C17.1263 11.9192 17.0077 12.0301 16.8886 12.1407C16.7232 12.2942 16.5574 12.4465 16.3856 12.5929C16.2364 12.721 16.0907 12.8528 15.9442 12.9838C16.0036 13.1398 16.1228 13.2353 16.2451 13.3435C16.2669 13.3631 16.2887 13.3827 16.3111 13.4029C16.4472 13.5249 16.5846 13.6454 16.7235 13.7644C16.8102 13.8393 16.8957 13.9156 16.9811 13.9919C17.0915 14.0905 17.2023 14.1885 17.3144 14.2852C17.6212 14.55 17.9209 14.8225 18.2206 15.0951C18.3135 15.1795 18.4065 15.2639 18.4995 15.3483C18.5366 15.3819 18.5737 15.4156 18.6107 15.4492C18.6843 15.516 18.7579 15.5827 18.8315 15.6494C18.9431 15.7506 19.0546 15.8518 19.1661 15.9531C19.1846 15.97 19.2032 15.9868 19.2223 16.0042C19.5494 16.3014 19.873 16.6023 20.196 16.9038C20.3018 17.0026 20.4077 17.1012 20.5136 17.1999C20.5657 17.2484 20.6177 17.2968 20.6697 17.3453C20.8054 17.4718 20.9412 17.5981 21.0771 17.7243C21.1051 17.7503 21.1332 17.7764 21.1621 17.8033C21.2152 17.8526 21.2684 17.902 21.3216 17.9513C21.4629 18.0827 21.6013 18.2164 21.7379 18.3525C21.8083 18.4219 21.8807 18.4884 21.9552 18.5535C21.9795 18.575 22.0038 18.5965 22.0288 18.6187C22.0884 18.6732 22.0884 18.6732 22.1658 18.6658C22.1658 14.9641 22.1658 11.2624 22.1658 7.4485C22.0525 7.43647 22.0525 7.43647 21.9814 7.51165ZM11.6854 13.607C11.4037 13.8272 11.1399 14.0609 10.8783 14.3037C10.7033 14.466 10.5222 14.6206 10.3393 14.7742C10.032 15.0324 10.032 15.0324 9.74256 15.3099C9.6827 15.3694 9.62031 15.4241 9.55595 15.4788C9.40731 15.6057 9.26402 15.7378 9.12081 15.8706C8.84423 16.1271 8.56538 16.3809 8.28524 16.6336C7.98631 16.9037 7.69151 17.1781 7.39711 17.4531C7.26507 17.5764 7.13285 17.6995 7.00065 17.8227C6.94823 17.8715 6.89582 17.9203 6.8434 17.9691C6.81744 17.9933 6.79148 18.0175 6.76473 18.0424C6.68553 18.1162 6.60635 18.19 6.52717 18.2638C6.48786 18.3005 6.48786 18.3005 6.44774 18.3379C6.39554 18.3865 6.34335 18.4352 6.29117 18.4839C6.15616 18.6097 6.02084 18.7352 5.88502 18.8602C5.85745 18.8857 5.82989 18.9111 5.80149 18.9373C5.74854 18.9861 5.69552 19.0348 5.64241 19.0834C5.61893 19.1051 5.59545 19.1267 5.57125 19.1491C5.55043 19.1682 5.52962 19.1873 5.50817 19.207C5.45947 19.2462 5.45947 19.2462 5.46377 19.289C10.7677 19.289 16.0716 19.289 21.5362 19.289C21.3893 19.1193 21.2594 18.977 21.0941 18.8307C20.9702 18.7203 20.8475 18.6096 20.7308 18.4917C20.6461 18.4062 20.5586 18.3268 20.4669 18.2488C20.3554 18.1538 20.2508 18.0546 20.1475 17.951C20.0222 17.8253 19.8927 17.7083 19.7573 17.5934C19.6543 17.5028 19.5589 17.4053 19.4622 17.3082C19.3912 17.239 19.3181 17.1743 19.2425 17.1101C19.1317 17.0159 19.0279 16.9175 18.9254 16.8146C18.8052 16.6942 18.6818 16.5815 18.5522 16.4713C18.4289 16.3637 18.3093 16.2523 18.1893 16.141C18.0062 15.9711 17.8217 15.8031 17.6344 15.6377C17.535 15.5484 17.4372 15.4576 17.3394 15.3666C17.1145 15.157 16.8863 14.9534 16.6505 14.7559C16.5063 14.6348 16.3655 14.5107 16.2266 14.3837C16.2082 14.3669 16.1898 14.35 16.1708 14.3327C16.1531 14.3165 16.1353 14.3003 16.1171 14.2836C15.8581 14.0476 15.588 13.8264 15.3146 13.607C15.2064 13.6555 15.1291 13.7082 15.0448 13.7907C15.0223 13.8124 14.9998 13.834 14.9766 13.8563C14.953 13.8791 14.9293 13.9019 14.905 13.9255C14.4493 14.3552 14.0135 14.6111 13.3741 14.6045C12.8567 14.5745 12.4933 14.2756 12.1298 13.9369C12.076 13.8885 12.0221 13.8404 11.9677 13.7926C11.9341 13.7626 11.9341 13.7626 11.8998 13.732C11.8316 13.6788 11.7642 13.6426 11.6854 13.607Z" fill="black"/>
</svg>

<svg width="27" height="27" viewBox="0 0 27 27" fill="none" xmlns="http://www.w3.org/2000/svg"><path d="M5.526 6.01l.085-.001h.282a277.905 277.905 0 00.765 0l.606-.002a822.516 822.516 0 012.15 0l2.732-.002h.074a739.537 739.537 0 002.466-.001A1898.077 1898.077 0 0118.667 6a392.27 392.27 0 011.772 0 82.11 82.11 0 01.747 0c.534-.004.959.084 1.358.462.257.273.445.59.446.974v.258a65.854 65.854 0 01.001.54l.001.426v.835l.001.679.001 1.926v.209a997.173 997.173 0 01.004 4.384A207.101 207.101 0 0123 17.944a53.696 53.696 0 01.001.591 1.575 1.575 0 01-.468 1.129c-.306.282-.634.444-1.058.442h-.085a53.016 53.016 0 01-.486 0l-.561.001h-.606l-1.186.002h-.963l-2.733.001h-.225l-2.316.001a1737.489 1737.489 0 01-3.981.003 382.47 382.47 0 01-1.772 0 77.072 77.072 0 01-.747.001c-.534.003-.959-.085-1.358-.462-.257-.274-.445-.591-.446-.974v-.259a459.508 459.508 0 00-.001-.539l-.001-.426a407.93 407.93 0 01-.001-1.515l-.001-1.925v-.21c0-.562 0-1.123-.002-1.684a874.714 874.714 0 01-.002-2.7A194.682 194.682 0 014 8.17a55.387 55.387 0 010-.59c.004-.44.158-.809.468-1.129.306-.282.634-.444 1.058-.442zm-.025.815c.17.2.17.2.352.383l.068.062.07.064.075.068c.162.148.325.294.49.44.112.1.223.201.334.303.14.13.282.258.425.385.184.162.364.328.545.493.248.227.497.454.75.678.164.146.327.295.49.444.15.138.302.274.455.41l.316.284c.135.123.27.246.407.367.23.205.459.412.687.62.22.2.44.4.662.596.107.095.212.191.318.287.165.15.332.3.5.448l.198.18.107.098.097.09c.193.163.389.302.653.302.256-.023.438-.13.625-.303l.097-.089.093-.085.14-.121c.155-.133.305-.27.455-.409.152-.139.305-.276.46-.412l.315-.286c.134-.122.27-.243.405-.364.144-.128.286-.257.428-.387.171-.157.344-.312.518-.466l.316-.286c.135-.123.27-.245.407-.366.211-.188.42-.378.63-.568.417-.38.417-.38.627-.566.184-.164.365-.33.546-.496.249-.227.498-.454.75-.677.163-.145.324-.292.484-.439.104-.094.207-.189.312-.282l.061-.056.169-.15c.092-.082.092-.082.161-.194H5.501zm-.667.623v11.218a.973.973 0 00.275-.184l.071-.066.073-.069.072-.066c.119-.111.236-.224.351-.34.086-.084.172-.165.265-.242a5.28 5.28 0 00.319-.298 6.23 6.23 0 01.388-.355c.113-.1.219-.209.326-.316.098-.096.201-.184.306-.273.1-.088.193-.182.285-.277.073-.07.147-.135.223-.2.153-.133.301-.27.449-.407.19-.178.383-.355.579-.528.112-.1.222-.2.333-.302.273-.25.55-.497.83-.74.088-.076.175-.153.262-.231.135-.12.27-.239.406-.357.137-.118.273-.238.409-.358-.059-.146-.156-.228-.273-.332l-.121-.108-.063-.055-.289-.26a22.393 22.393 0 00-.4-.36 42.739 42.739 0 01-.49-.445 32 32 0 00-.364-.328 40.716 40.716 0 01-.488-.442c-.12-.11-.242-.22-.364-.328a41.834 41.834 0 01-.488-.442c-.12-.11-.241-.22-.364-.327a40.79 40.79 0 01-.488-.442c-.12-.11-.241-.22-.363-.328a40.542 40.542 0 01-.489-.442c-.149-.137-.3-.272-.451-.406a13.152 13.152 0 01-.287-.265l-.126-.119a.589.589 0 00-.314-.18zm17.147.064l-.081.085a4.503 4.503 0 01-.313.298 13.7 13.7 0 00-.44.397c-.161.15-.323.298-.491.44-.123.108-.241.219-.36.33-.162.15-.324.298-.492.44-.122.108-.241.219-.36.33-.162.15-.324.297-.492.44-.122.108-.24.219-.36.33-.162.15-.324.297-.492.44-.122.107-.24.218-.36.329-.161.15-.323.298-.491.44-.123.108-.241.22-.36.33-.166.153-.332.306-.503.452-.15.128-.295.26-.442.39.06.157.179.252.301.36l.066.06c.136.122.274.242.413.361l.257.228c.11.098.221.196.333.293.307.265.607.537.907.81l.279.253.11.101a399.704 399.704 0 00.556.504l.056.051c.327.297.651.598.974.9l.318.296.156.145a290.004 290.004 0 00.492.458l.16.148c.14.132.28.265.416.401a4.917 4.917 0 00.29.267c.06.054.06.054.138.047V7.448c-.114-.012-.114-.012-.185.064zm-10.296 6.095c-.281.22-.545.454-.807.697a14.16 14.16 0 01-.539.47c-.307.258-.307.258-.596.536-.06.06-.123.114-.187.169a13.49 13.49 0 00-.435.392c-.277.256-.556.51-.836.763-.299.27-.593.544-.888.82l-.396.369-.158.146-.078.073-.238.222-.08.074-.156.146-.406.376-.084.077c-.052.05-.105.098-.159.146l-.07.066-.064.058c-.049.04-.049.04-.044.082h16.072a4.589 4.589 0 00-.442-.458 7.919 7.919 0 01-.363-.34 4.182 4.182 0 00-.264-.242 5.352 5.352 0 01-.32-.298 6.318 6.318 0 00-.39-.358c-.103-.09-.198-.188-.295-.285a4.295 4.295 0 00-.22-.198 5.21 5.21 0 01-.317-.295 6.182 6.182 0 00-.373-.344c-.123-.107-.243-.219-.363-.33a26.48 26.48 0 00-.555-.503l-.295-.271a16.58 16.58 0 00-.688-.611 13.377 13.377 0 01-.424-.372l-.056-.051-.054-.05a17.256 17.256 0 00-.802-.676.862.862 0 00-.27.184l-.068.065-.072.07c-.456.43-.891.685-1.53.678-.518-.03-.882-.328-1.245-.667a18.534 18.534 0 00-.162-.144l-.068-.061a1.003 1.003 0 00-.215-.125z" fill="#000"/></svg>
